X:10
T:Laurel's Reel
R:reel
C:Allie Bennett
O:contempory Cape Breton
D:Allie Bennett, It's About Time
Z:Paul Stewart Cranford (P.S.C.), <http://www.cranfordpub.com>
L:1/8
M:C|
Q:333
K:A
ED|C3 D EFAB|cfec BAFA|BF F/F/F dcBA|GBAF EFED|
C3 D EFAB|cfec BAFA|BF F/F/F dcBA|EAGB A2:|
|:cd|e2 ef edcd|ea a/a/a aece|fB B/B/B dcBA|1 GBAF E2 cd|
e2 ef edcd|ea a/a/a aece|fB B/B/B dcBA|EAGB A2:|
[2GBAF EFED|C3 D EFAB|cfec BAFA|BF F/F/F dcBA|EAGB A2|]
